!!!SOCIAL_FUNCTION:	war songs
!!!PDT:	1913
!!!OTL: No_82_Song_of_the_Sentry.krn
!!!REG: Great_Lakes
!!!LANG: Non-Tone
!!!LING_GROUP: Algonquin
**kern	**kern
*staff2	*staff1
=1-	=1-
*clefF4	*clefF4
*k[f#c#g#d#]	*k[f#c#g#d#]
*M3/4	*M3/4
12GG#^/	4c#\
12r	.
12GG#/	.
12GG#^/	12G#\L
12r	12c#\
12GG#/	12c#\J
12GG#^/	4c#\
12r	.
12GG#/	.
=2||	=2||
*M2/4	*M2/4
2r	4.c#\
.	8B\
=3	=3
2r	16G#\LK
.	[8.G#\J
.	4G#\]
=4||	=4||
*M3/4	*M3/4
2.r	2G#\
.	8F#\L
.	8F#\J
=5||	=5||
*M2/4	*M2/4
2r	2F#\
=6||	=6||
*M3/4	*M3/4
2.r	16E\LK
.	[8.F#\J
.	8F#\L]
.	8E\J
.	12C#/L
.	12C#/
.	12C#/J
=7||	=7||
*M2/4	*M2/4
2r	16F#\LK
.	8.F#\J
.	32F#\LLL
.	32E\J
.	16C#\
.	16C#\
.	32E\L
.	32E\JJJ
=8||	=8||
*M3/4	*M3/4
2.r	8.C#/L
.	16C#/Jk
.	2C#/
=9	=9
2.r	2.C#/
=10||	=10||
*M2/4	*M2/4
2r	16G#\LK
.	8.G#\J
.	4G#\
=11	=11
2r	12G#\L
.	12G#\
.	12G#\J
.	4G#\
=12	=12
2r	16G#\LK
.	8.G#\J
.	8.G#\L
.	16F#\Jk
=13||	=13||
*M3/4	*M3/4
2.r	16F#\LK
.	8.F#\J
.	2F#\
=14||	=14||
*M2/4	*M2/4
2r	16E\LK
.	8.F#\J
.	8F#\L
.	8E\J
=15	=15
2r	16C#/LK
.	[8.C#/J
.	4C#/]
=16	=16
2r	16F#\LK
.	8.F#\J
.	32F#\LLL
.	32E\J
.	16E\JJ
.	32C#\LLL
.	32E\J
.	16E\JJ
=17||	=17||
*M3/4	*M3/4
2.r	16C#/LK
.	8.C#/J
.	2C#/
=18	=18
2.r	2.C#/
==	==
*-	*-
